X:58
T:Polonäs efter Pehr Andersson Bild 21 nr 58
S:efter Pehr Andersson
B:Spelmansbok Ma 1 efter Pehr Andersson daterad 1731
B:FMK - katalog Ma1 bild 21
O:Måstorp, Närke
R:Slängpolska
Z:Nils L
M:3/4
L:1/16
K:D
d2f2 e2g2 f2a2 | A2Bc d2(BG) F2ED | f2d2 g2b2 a2g2 | f2ga e8 ::
a2c2 E2a2 a2gf | g2B2 D2g2 g2fe | f2d2 D2f2 f2ed | efed cdcB A4 |
a2c2 E2a2 a2gf | g2B2 D2g2 g2fe | f2(ed) c2de A2Bc | d12 :|

